svgs/sharp-light/tally-4.svg

<svg xmlns="http://www.w3.org/2000/svg" viewBox="0 0 640 512"><!--! Font Awesome Pro 6.6.0 by @fontawesome - https://fontawesome.com License - https://fontawesome.com/license (Commercial License) Copyright 2024 Fonticons, Inc. --><path d="M144 48l0-16-32 0 0 16 0 416 0 16 32 0 0-16 0-416zm128 0l0-16-32 0 0 16 0 416 0 16 32 0 0-16 0-416zM400 32l-32 0 0 16 0 416 0 16 32 0 0-16 0-416 0-16zM528 48l0-16-32 0 0 16 0 416 0 16 32 0 0-16 0-416z"/></svg>

<svg xmlns="http://www.w3.org/2000/svg" viewBox="0 0 640 512"><!--! Font Awesome Pro 6.4.2 by @fontawesome - https://fontawesome.com License - https://fontawesome.com/license (Commercial License) Copyright 2023 Fonticons, Inc. --><path d="M144 48V32H112V48 464v16h32V464 48zm128 0V32H240V48 464v16h32V464 48zM400 32H368V48 464v16h32V464 48 32zM528 48V32H496V48 464v16h32V464 48z"/></svg>
